X: 3392
T:Geese in the Bog, The
T:Old Geese in the Bog, The
R:jig
H:Played in C or D
D:Music at Matt Molloy's
M:6/8
L:1/8
K:C
cEE GEE|cEE GAB|cEE GED|EAA A2B|!
cEE GEE|cEE GAB|cBA GED|EAA A2B:|!
|:cde g2e|gea ged|cde ged|eaa age|!
cde g2e|gea ged|cBA GED|EAA A2B:|!
K:D
|:dFF AFF|dFF ABc|dFF AFE|FBB B2c|!
dFF AFF|dFF ABc|dcB AFE|FBB B2c:|!
|:def a2f|afb afe|def afe|fbb baf|!
def a2f|afb afe|dcB AFE|FBB B2c:|!
